src/LUT/_Look.cube
#Generated by: Picture Instruments - Image2LUT
TITLE "_Look"
LUT_3D_SIZE 5
0.0000 0.0000 0.0000
0.3294 0.1647 0.1647
0.5608 0.2824 0.2824
0.6039 0.3020 0.3020
0.6588 0.3294 0.3294
0.1098 0.2196 0.1098
0.3020 0.2549 0.1490
0.5137 0.3529 0.2549
0.5843 0.3804 0.2902
0.6588 0.4157 0.3294
0.2118 0.4235 0.2118
0.3333 0.3961 0.1961
0.4627 0.4157 0.2314
0.5647 0.4549 0.2824
0.6588 0.4902 0.3294
0.2863 0.5725 0.2863
0.3922 0.5451 0.2745
0.4667 0.5176 0.2588
0.5490 0.5216 0.2706
0.6588 0.5765 0.3294
0.3294 0.6588 0.3294
0.4353 0.6588 0.3294
0.5137 0.6588 0.3294
0.6039 0.6588 0.3294
0.6588 0.6588 0.3294
0.0000 0.0000 0.0000
0.3020 0.1490 0.1490
0.5137 0.2549 0.2549
0.5843 0.2902 0.2902
0.6588 0.3294 0.3294
0.1020 0.2039 0.1020
0.2706 0.2314 0.1333
0.4627 0.3176 0.2314
0.5647 0.3647 0.2824
0.6588 0.4078 0.3294
0.1961 0.3961 0.1961
0.3059 0.3686 0.1843
0.4157 0.3804 0.2078
0.5490 0.4353 0.2706
0.6588 0.4902 0.3294
0.2745 0.5451 0.2745
0.3647 0.5176 0.2588
0.4275 0.4902 0.2431
0.5490 0.5216 0.2706
0.6588 0.5804 0.3294
0.3294 0.6588 0.3294
0.4196 0.6588 0.3294
0.5137 0.6588 0.3294
0.6039 0.6588 0.3294
0.6588 0.6588 0.3294
0.0784 0.0784 0.1608
0.2706 0.1333 0.2078
0.4627 0.2314 0.3020
0.5647 0.2824 0.3490
0.6588 0.3294 0.3882
0.0941 0.1922 0.1725
0.3098 0.2824 0.2627
0.4784 0.3569 0.3333
0.6078 0.4118 0.3922
0.7216 0.4667 0.4510
0.1843 0.3686 0.2549
0.3451 0.4118 0.3020
0.4235 0.4039 0.2980
0.6078 0.4941 0.3922
0.7216 0.5569 0.4510
0.2588 0.5176 0.3216
0.3961 0.5490 0.3647
0.4902 0.5529 0.3686
0.6078 0.5843 0.3922
0.7216 0.6431 0.4510
0.3294 0.6588 0.3882
0.4824 0.7216 0.4510
0.5686 0.7216 0.4510
0.6627 0.7216 0.4510
0.7216 0.7216 0.4510
0.2000 0.2000 0.4039
0.3176 0.2000 0.4000
0.4235 0.2157 0.4118
0.5490 0.2706 0.4706
0.6588 0.3294 0.5255
0.2000 0.2863 0.4000
0.3843 0.3608 0.4784
0.4549 0.3451 0.4667
0.6275 0.4314 0.5451
0.7412 0.4902 0.6039
0.2000 0.3725 0.3961
0.3765 0.4471 0.4784
0.5373 0.5216 0.5490
0.7137 0.6039 0.6353
0.8275 0.6667 0.6941
0.2431 0.4902 0.4392
0.4314 0.5843 0.5294
0.6157 0.6824 0.6275
0.7451 0.7255 0.6627
0.8549 0.7804 0.7176
0.3294 0.6588 0.5255
0.5137 0.7529 0.6118
0.6941 0.8431 0.7059
0.8000 0.8549 0.7176
0.8549 0.8549 0.7176
0.3294 0.3294 0.6588
0.4353 0.3294 0.6588
0.5137 0.3294 0.6588
0.6039 0.3294 0.6588
0.6588 0.3294 0.6588
0.3294 0.4157 0.6588
0.4980 0.4824 0.7373
0.5922 0.4863 0.7412
0.6863 0.4902 0.7412
0.7412 0.4941 0.7412
0.3294 0.4902 0.6588
0.5137 0.5843 0.7529
0.6784 0.6627 0.8275
0.7725 0.6667 0.8275
0.8314 0.6706 0.8314
0.3294 0.5765 0.6588
0.5137 0.6745 0.7529
0.6941 0.7647 0.8431
0.8627 0.8431 0.9176
0.9216 0.8510 0.9216
0.3294 0.6588 0.6588
0.5137 0.7529 0.7529
0.6941 0.8431 0.8431
0.8824 0.9333 0.9333
0.9882 0.9882 0.9882
