src/LUT/P1080675_Look.cube
#Generated by: Picture Instruments - Image2LUT
TITLE "P1080675_Look"
LUT_3D_SIZE 5
0.0000 0.0000 0.0000
0.2235 0.0000 0.0000
0.4941 0.0000 0.0000
0.7608 0.0000 0.0000
0.8510 0.1490 0.1490
0.0235 0.0980 0.0235
0.2039 0.2000 0.0000
0.4941 0.2235 0.0000
0.7647 0.2275 0.0000
0.9961 0.2392 0.0039
0.1098 0.2667 0.1098
0.1490 0.2471 0.0980
0.4314 0.4275 0.0000
0.7647 0.4941 0.0000
1.0000 0.4980 0.0000
0.2078 0.4627 0.2078
0.2353 0.4510 0.2039
0.3255 0.4431 0.1961
0.6510 0.6510 0.0392
1.0000 0.7647 0.0000
0.3176 0.6824 0.3176
0.3333 0.6824 0.3176
0.4353 0.6824 0.3176
0.5804 0.7098 0.2902
0.8353 0.8353 0.1647
0.0510 0.0510 0.1451
0.1569 0.0157 0.1765
0.4941 0.0000 0.2235
0.7569 0.0000 0.2275
0.8353 0.1647 0.3333
0.0510 0.1059 0.1451
0.1529 0.1451 0.1922
0.5176 0.1961 0.1961
0.7922 0.1961 0.2000
0.9961 0.2353 0.2471
0.1020 0.2431 0.1961
0.1529 0.2667 0.2157
0.4824 0.4824 0.2118
0.7961 0.4941 0.2000
1.0000 0.4980 0.2314
0.2039 0.4510 0.2980
0.2275 0.4549 0.3098
0.4039 0.5294 0.3804
0.7216 0.7176 0.2471
1.0000 0.7686 0.2275
0.3176 0.6824 0.4118
0.3176 0.6824 0.4118
0.5255 0.7882 0.4510
0.6667 0.8000 0.3922
0.9098 0.9098 0.2863
0.1490 0.1490 0.3412
0.1961 0.1490 0.3412
0.2902 0.1490 0.3412
0.6627 0.0353 0.4627
0.7922 0.2078 0.5059
0.1490 0.1882 0.3412
0.2078 0.2039 0.3686
0.3569 0.1882 0.4000
0.7686 0.2000 0.4902
0.9765 0.2471 0.4980
0.1490 0.2824 0.3412
0.1804 0.2863 0.3569
0.3882 0.3882 0.4588
0.7961 0.4706 0.4706
1.0000 0.4980 0.4980
0.1961 0.4392 0.3922
0.1922 0.4314 0.3882
0.4431 0.5882 0.4824
0.7765 0.7765 0.4784
1.0000 0.7686 0.4980
0.3176 0.6824 0.5098
0.3294 0.7176 0.4980
0.5569 0.8314 0.5647
0.7569 0.8902 0.5686
0.9961 0.9961 0.5059
0.2392 0.2392 0.5216
0.2706 0.2392 0.5255
0.3686 0.2431 0.5294
0.4824 0.2431 0.5333
0.7216 0.2784 0.6157
0.2392 0.2667 0.5255
0.2706 0.2706 0.5451
0.3569 0.2431 0.5333
0.5216 0.2549 0.5490
0.8078 0.3176 0.6510
0.2431 0.3686 0.5294
0.2431 0.3569 0.5333
0.4824 0.4824 0.6510
0.7020 0.4941 0.7020
1.0000 0.5098 0.7608
0.2431 0.4824 0.5333
0.2549 0.5176 0.5490
0.5020 0.6471 0.6549
0.7569 0.7490 0.7373
1.0000 0.7725 0.7686
0.2941 0.7059 0.6078
0.3412 0.7529 0.6235
0.5843 0.8706 0.7176
0.8157 0.9647 0.7765
1.0000 1.0000 0.7686
0.3176 0.3176 0.6824
0.3333 0.3176 0.6824
0.4353 0.3176 0.6824
0.5804 0.2941 0.7059
0.7333 0.2667 0.7333
0.3176 0.3333 0.6824
0.3176 0.3176 0.6824
0.4549 0.3294 0.7176
0.6196 0.3373 0.7529
0.7882 0.3490 0.7882
0.3176 0.4353 0.6824
0.3294 0.4549 0.7176
0.5686 0.5647 0.8471
0.7373 0.5765 0.8706
0.8941 0.5882 0.8941
0.2941 0.5804 0.7059
0.3412 0.6157 0.7529
0.5843 0.7294 0.8745
0.8314 0.8196 0.9765
1.0000 0.8078 1.0000
0.2667 0.7333 0.7333
0.3529 0.7882 0.7882
0.6000 0.8980 0.8980
0.8471 0.9882 0.9882
1.0000 1.0000 1.0000
